src/assets/img/providers-white/ainsworth.svg

<svg width="110" height="26" viewBox="0 0 110 26" fill="none" xmlns="http://www.w3.org/2000/svg">
<path fill-rule="evenodd" clip-rule="evenodd" d="M1.24499 12.2469C3.68441 12.4916 6.25764 12.944 8.9647 13.6042C9.14568 13.6475 9.18264 13.7457 9.07558 13.8986L3.66529 21.6719C3.59901 21.7687 3.6245 21.8172 3.74176 21.8172L14.1723 21.8057C14.2972 21.8057 14.3763 21.7471 14.4094 21.6298L16.0765 15.776C16.1172 15.6256 16.2116 15.5746 16.3594 15.623C23.4865 17.907 29.9533 21.2385 35.76 25.6177C36.0557 25.8395 36.099 25.7974 35.89 25.4916L18.6038 0.363332C18.5248 0.246077 18.4458 0.246077 18.3668 0.363332C16.1389 3.62608 13.9022 6.88755 11.6565 10.1477C11.6196 10.201 11.5853 10.2555 11.5515 10.3092C11.3884 10.5681 11.2361 10.8099 10.8688 10.813C7.30784 10.836 4.09097 11.1368 1.21823 11.7154C0.0456812 11.9499 0.0546026 12.1271 1.24499 12.2469ZM20.5069 12.6806C20.4822 12.6877 20.4558 12.6872 20.4315 12.6789L17.2847 11.7192C17.2528 11.7095 17.2261 11.6876 17.2103 11.6582C17.1945 11.6288 17.191 11.5944 17.2006 11.5624L18.145 8.40804C18.152 8.3838 18.1661 8.36223 18.1855 8.3461C18.2049 8.32997 18.2287 8.32003 18.2538 8.31756C18.2789 8.31509 18.3042 8.32021 18.3264 8.33224C18.3486 8.34428 18.3666 8.36269 18.3782 8.3851L20.5806 12.4954C20.5936 12.5176 20.5996 12.5432 20.5976 12.5689C20.5957 12.5945 20.586 12.619 20.5698 12.6389C20.5535 12.6589 20.5316 12.6734 20.5069 12.6806ZM44.8141 9.00451C44.5821 9.24922 44.5669 9.51814 44.7682 9.81128C44.8125 9.87455 44.87 9.92725 44.9368 9.96559C45.0036 10.0039 45.0779 10.027 45.1544 10.033C45.8046 10.0767 46.4903 10.0733 47.1852 10.0699C48.558 10.0631 49.967 10.0562 51.2109 10.4116C52.4612 10.7672 52.4497 12.4686 52.2356 13.4704C52.0775 14.2147 51.606 14.6378 50.8209 14.7398C48.8403 14.9998 46.5831 15.0355 44.0494 14.8469C42.7341 14.7475 42.0943 14.0414 42.13 12.7286C42.1376 12.4661 42.2727 12.3348 42.5353 12.3348L44.21 12.3386C44.5159 12.3412 44.6879 12.4941 44.7262 12.7975C44.7542 13.0345 44.897 13.1569 45.1544 13.1645C46.5232 13.2027 47.8385 13.2091 49.1003 13.1836C49.503 13.176 49.7273 12.9733 49.7732 12.5757C49.7885 12.4533 49.763 12.3297 49.6968 12.2048C49.6596 12.134 49.6045 12.0743 49.5373 12.032C49.4701 11.9896 49.3932 11.9662 49.3144 11.9639C47.836 11.918 46.3894 11.8773 44.9747 11.8416C44.0723 11.8186 43.2911 11.6364 42.6309 11.2948C42.5213 11.2387 42.4461 11.1521 42.4053 11.0348C42.1784 10.4052 42.1109 9.67235 42.2026 8.83628C42.3671 7.31833 43.8926 7.1348 45.1506 7.10804C47.9978 7.05196 49.7108 7.08255 50.2894 7.19981C51.5639 7.45981 52.1234 8.21177 51.9679 9.45569C51.9526 9.59079 51.8774 9.65706 51.7423 9.65451L49.842 9.63157C49.6713 9.62902 49.5604 9.5449 49.5094 9.37922C49.4635 9.22882 49.382 9.10265 49.2647 9.00069C49.1678 8.91657 49.0557 8.87451 48.9282 8.87451L45.0971 8.88216C45.0438 8.88223 44.9913 8.89312 44.9426 8.91416C44.894 8.9352 44.8502 8.96595 44.8141 9.00451ZM78.2203 12.4074C78.2203 12.7373 78.1553 13.064 78.0291 13.3687C77.9028 13.6735 77.7178 13.9504 77.4845 14.1837C77.2513 14.417 76.9743 14.602 76.6696 14.7283C76.3648 14.8545 76.0381 14.9195 75.7082 14.9195H69.6747C69.3448 14.9195 69.0182 14.8545 68.7134 14.7283C68.4086 14.602 68.1317 14.417 67.8984 14.1837C67.6652 13.9504 67.4801 13.6735 67.3539 13.3687C67.2276 13.064 67.1627 12.7373 67.1627 12.4074V9.63918C67.1627 8.97294 67.4273 8.33399 67.8984 7.86289C68.3695 7.39179 69.0085 7.12713 69.6747 7.12713H75.7082C76.3745 7.12713 77.0134 7.39179 77.4845 7.86289C77.9556 8.33399 78.2203 8.97294 78.2203 9.63918V12.4074ZM75.6571 10.1846C75.6568 10.041 75.6283 9.89882 75.5731 9.76624C75.5179 9.63366 75.4372 9.51326 75.3354 9.41189C75.2337 9.31052 75.113 9.23019 74.9803 9.17546C74.8475 9.12074 74.7052 9.0927 74.5616 9.09296L70.7993 9.09953C70.6557 9.09978 70.5136 9.12832 70.381 9.1835C70.2484 9.23869 70.128 9.31945 70.0266 9.42117C69.9253 9.52289 69.8449 9.64358 69.7902 9.77635C69.7355 9.90912 69.7075 10.0514 69.7077 10.195L69.7106 11.8391C69.7108 11.9827 69.7394 12.1248 69.7945 12.2574C69.8497 12.39 69.9305 12.5104 70.0322 12.6118C70.1339 12.7131 70.2546 12.7935 70.3874 12.8482C70.5202 12.9029 70.6624 12.931 70.806 12.9307L74.5683 12.9241C74.7119 12.9239 74.8541 12.8953 74.9867 12.8402C75.1192 12.785 75.2397 12.7042 75.341 12.6025C75.4424 12.5008 75.5227 12.3801 75.5774 12.2473C75.6322 12.1145 75.6602 11.9723 75.66 11.8287L75.6571 10.1846ZM27.0079 7.3109V11.188C27.0073 11.2123 27.014 11.2362 27.0271 11.2568L29.2523 14.5565C29.2667 14.5791 29.2881 14.5963 29.3132 14.6056C29.3383 14.6149 29.3657 14.6157 29.3913 14.6079C29.4169 14.6001 29.4393 14.5841 29.4549 14.5624C29.4706 14.5407 29.4786 14.5144 29.4779 14.4877L29.4588 7.30325C29.4588 7.2708 29.4459 7.23968 29.423 7.21673C29.4 7.19379 29.3689 7.18089 29.3365 7.18089L27.1303 7.18854C27.0978 7.18854 27.0667 7.20143 27.0438 7.22438C27.0208 7.24732 27.0079 7.27845 27.0079 7.3109ZM32.8159 9.59354L32.8312 14.6827C32.8312 14.6992 32.8279 14.7156 32.8216 14.7309C32.8152 14.7463 32.8059 14.7602 32.7942 14.7719C32.7825 14.7836 32.7686 14.7929 32.7533 14.7992C32.738 14.8056 32.7216 14.8088 32.705 14.8088L30.4721 14.7897C30.4555 14.7897 30.4391 14.7865 30.4238 14.7801C30.4085 14.7738 30.3946 14.7645 30.3828 14.7528C30.3711 14.741 30.3618 14.7271 30.3555 14.7118C30.3491 14.6965 30.3459 14.6801 30.3459 14.6635L30.3535 7.3109C30.3535 7.27743 30.3668 7.24534 30.3905 7.22168C30.4141 7.19801 30.4462 7.18472 30.4797 7.18472H34.1159C34.1342 7.18497 34.1522 7.18921 34.1687 7.19713C34.1852 7.20505 34.1998 7.21648 34.2115 7.2306L38.6506 12.553C38.6671 12.5742 38.6899 12.5895 38.7157 12.5969C38.7416 12.6042 38.7691 12.6031 38.7943 12.5937C38.8194 12.5843 38.8409 12.5671 38.8557 12.5447C38.8704 12.5222 38.8776 12.4957 38.8762 12.4688L38.8494 7.31472C38.8494 7.29815 38.8527 7.28174 38.859 7.26643C38.8654 7.25112 38.8746 7.23721 38.8864 7.2255C38.8981 7.21378 38.912 7.20449 38.9273 7.19815C38.9426 7.19181 38.959 7.18854 38.9756 7.18854L41.1856 7.18089C41.219 7.18089 41.2511 7.19419 41.2748 7.21785C41.2985 7.24151 41.3118 7.27361 41.3118 7.30707L41.3156 14.6788C41.3156 14.6954 41.3123 14.7118 41.306 14.7271C41.2996 14.7424 41.2903 14.7563 41.2786 14.7681C41.2669 14.7798 41.253 14.7891 41.2377 14.7954C41.2224 14.8018 41.206 14.805 41.1894 14.805H37.5035C37.4852 14.8048 37.4672 14.8005 37.4507 14.7926C37.4342 14.7847 37.4196 14.7733 37.4079 14.7591L33.0415 9.50943C33.025 9.48823 33.0021 9.47284 32.9763 9.46551C32.9505 9.45819 32.923 9.45929 32.8978 9.46868C32.8726 9.47806 32.8511 9.49523 32.8364 9.51769C32.8217 9.54015 32.8145 9.56672 32.8159 9.59354ZM64.6429 7.2762L63.0447 12.5756C63.0373 12.6005 63.0221 12.6224 63.0014 12.6381C62.9807 12.6538 62.9555 12.6625 62.9295 12.6629C62.9035 12.6633 62.8781 12.6555 62.8568 12.6405C62.8356 12.6254 62.8197 12.6041 62.8115 12.5794L60.9494 7.27238C60.9406 7.24824 60.9244 7.2275 60.9031 7.21308C60.8819 7.19867 60.8566 7.19132 60.8309 7.19208L58.6859 7.18826C58.6609 7.1883 58.6364 7.19602 58.6159 7.21038C58.5954 7.22474 58.5798 7.24504 58.5712 7.26855L56.6785 12.4915C56.6703 12.5161 56.6544 12.5375 56.6332 12.5525C56.612 12.5675 56.5865 12.5754 56.5605 12.575C56.5345 12.5745 56.5094 12.5658 56.4886 12.5501C56.4679 12.5345 56.4528 12.5126 56.4453 12.4877L54.8509 7.28002C54.8429 7.2558 54.8276 7.23467 54.807 7.21958C54.7865 7.2045 54.7617 7.19622 54.7362 7.19591L52.5644 7.17679C52.5448 7.17682 52.5254 7.18159 52.5079 7.1907C52.4905 7.19982 52.4755 7.213 52.4643 7.22913C52.453 7.24527 52.4458 7.26388 52.4433 7.28338C52.4407 7.30289 52.443 7.32273 52.4497 7.3412L54.9885 14.7244C54.9965 14.7487 55.0118 14.7698 55.0324 14.7849C55.053 14.8 55.0777 14.8082 55.1032 14.8086L57.8027 14.8047C57.8277 14.8047 57.8521 14.797 57.8726 14.7826C57.8931 14.7683 57.9088 14.7479 57.9174 14.7244L59.638 10.0521C59.6466 10.0287 59.6623 10.0085 59.6828 9.99421C59.7033 9.97995 59.7277 9.97231 59.7527 9.97231C59.7776 9.97231 59.802 9.97995 59.8225 9.99421C59.843 10.0085 59.8587 10.0287 59.8674 10.0521L61.5803 14.7244C61.5889 14.7479 61.6045 14.7683 61.625 14.7826C61.6455 14.797 61.67 14.8047 61.695 14.8047L64.4097 14.8086C64.4352 14.8082 64.46 14.8 64.4805 14.7849C64.5011 14.7698 64.5164 14.7487 64.5244 14.7244L67.0518 7.34502C67.0585 7.32655 67.0607 7.30672 67.0582 7.28721C67.0557 7.2677 67.0485 7.24909 67.0372 7.23296C67.026 7.21682 67.011 7.20364 66.9935 7.19453C66.9761 7.18542 66.9567 7.18064 66.9371 7.18061L64.7615 7.18826C64.7348 7.18802 64.7088 7.19647 64.6875 7.21235C64.6661 7.22822 64.6504 7.25064 64.6429 7.2762ZM87.8174 11.9409C88.9999 12.2499 88.9532 13.5674 88.9188 14.5379L88.9185 14.5448C88.9109 14.7181 88.8204 14.8048 88.6471 14.8048L86.6244 14.8086C86.4383 14.8111 86.3466 14.7194 86.3491 14.5333C86.3497 14.4268 86.3553 14.3151 86.3611 14.2022L86.3611 14.2019C86.3944 13.5449 86.4299 12.8444 85.4774 12.8509C84.1978 12.8586 82.9258 12.8535 81.6615 12.8357C81.5315 12.8331 81.4678 12.8968 81.4703 13.0268L81.4856 14.4262C81.4881 14.6811 81.3607 14.8086 81.1032 14.8086H79.3827C79.1379 14.8086 79.0156 14.6862 79.0156 14.4415L79.0194 7.368C79.0194 7.32034 79.0384 7.27463 79.0721 7.24093C79.1058 7.20723 79.1515 7.1883 79.1991 7.1883C81.6691 7.1832 84.1468 7.18575 86.6321 7.19594C88.1691 7.20104 88.9453 8.05241 88.9606 9.75006C88.9682 10.8156 88.5859 11.4783 87.8135 11.7383C87.5867 11.8148 87.5879 11.8823 87.8174 11.9409ZM86.4304 9.47912C86.4305 9.42941 86.4208 9.38017 86.4018 9.33421C86.3829 9.28825 86.3551 9.24646 86.32 9.21125C86.2849 9.17604 86.2432 9.14808 86.1973 9.12897C86.1514 9.10987 86.1022 9.09999 86.0525 9.09991L81.8313 9.09257C81.7309 9.09239 81.6346 9.1321 81.5635 9.20296C81.4924 9.27382 81.4523 9.37002 81.4521 9.47041L81.4502 10.5563C81.4501 10.606 81.4598 10.6552 81.4788 10.7012C81.4977 10.7472 81.5255 10.7889 81.5606 10.8242C81.5957 10.8594 81.6374 10.8873 81.6833 10.9064C81.7292 10.9255 81.7784 10.9354 81.8281 10.9355L86.0493 10.9428C86.1497 10.943 86.246 10.9033 86.3171 10.8325C86.3882 10.7616 86.4283 10.6654 86.4285 10.565L86.4304 9.47912ZM95.56 14.5907L95.5409 9.3563C95.5409 9.17022 95.6339 9.07846 95.82 9.08101C96.86 9.08611 97.8464 9.09375 98.7794 9.10395C98.9476 9.1065 99.0317 9.02238 99.0317 8.8516L99.0356 7.45218C99.0356 7.2763 98.9476 7.18836 98.7717 7.18836H89.9203C89.6985 7.18836 89.5889 7.29924 89.5914 7.52101L89.6029 8.80189C89.6055 8.99561 89.7036 9.09248 89.8973 9.09248L92.9714 9.08865C92.9895 9.08865 93.0074 9.09221 93.0241 9.09913C93.0408 9.10605 93.056 9.11619 93.0688 9.12897C93.0816 9.14175 93.0917 9.15693 93.0986 9.17363C93.1055 9.19033 93.1091 9.20822 93.1091 9.2263L93.0709 14.5334C93.0704 14.5688 93.0768 14.6041 93.0898 14.637C93.1029 14.6699 93.1222 14.6999 93.1468 14.7251C93.1713 14.7504 93.2006 14.7704 93.2328 14.7841C93.2651 14.7978 93.2997 14.8048 93.3347 14.8048L95.3382 14.8087C95.4861 14.8087 95.56 14.736 95.56 14.5907ZM107.375 9.71179L107.359 7.37561C107.359 7.32389 107.38 7.2743 107.417 7.23773C107.453 7.20116 107.503 7.18061 107.554 7.18061L109.6 7.17679C109.652 7.17679 109.701 7.19733 109.738 7.2339C109.774 7.27047 109.795 7.32007 109.795 7.37179L109.81 14.6136C109.81 14.6392 109.805 14.6645 109.795 14.6882C109.786 14.7118 109.771 14.7333 109.753 14.7514C109.735 14.7695 109.714 14.7839 109.69 14.7937C109.666 14.8035 109.641 14.8086 109.615 14.8086L107.547 14.8047C107.495 14.8047 107.445 14.7842 107.409 14.7476C107.372 14.711 107.352 14.6614 107.352 14.6097L107.379 12.155C107.379 12.1288 107.374 12.1027 107.364 12.0783C107.355 12.054 107.34 12.0318 107.321 12.0133C107.303 11.9947 107.281 11.9801 107.256 11.9703C107.232 11.9605 107.206 11.9557 107.18 11.9562L102.335 11.96C102.309 11.96 102.283 11.9653 102.259 11.9756C102.235 11.9858 102.213 12.0009 102.195 12.0198C102.176 12.0387 102.162 12.0611 102.153 12.0857C102.144 12.1102 102.139 12.1364 102.14 12.1627L102.224 14.5906C102.225 14.6165 102.221 14.6424 102.212 14.6667C102.203 14.691 102.189 14.7132 102.171 14.7321C102.154 14.751 102.132 14.7661 102.108 14.7766C102.085 14.7871 102.059 14.7928 102.033 14.7933L99.8997 14.8124C99.8738 14.8129 99.848 14.8082 99.8239 14.7986C99.7998 14.7891 99.7779 14.7748 99.7593 14.7566C99.7408 14.7385 99.7261 14.7168 99.7161 14.6929C99.706 14.669 99.7009 14.6433 99.7009 14.6174L99.72 7.37179C99.72 7.32007 99.7405 7.27047 99.7771 7.2339C99.8137 7.19733 99.8633 7.17679 99.915 7.17679L102.01 7.19973C102.036 7.19973 102.062 7.20489 102.086 7.21493C102.11 7.22497 102.131 7.23968 102.15 7.25819C102.168 7.2767 102.182 7.29865 102.192 7.32275C102.201 7.34686 102.206 7.37262 102.205 7.39855L102.148 9.70796C102.147 9.73389 102.152 9.75966 102.162 9.78376C102.171 9.80786 102.186 9.82981 102.204 9.84833C102.222 9.86684 102.244 9.88155 102.267 9.89159C102.291 9.90163 102.317 9.90679 102.343 9.90679H107.18C107.231 9.90679 107.281 9.88624 107.318 9.84968C107.354 9.81311 107.375 9.76351 107.375 9.71179Z" fill="white"/>
</svg>

<svg width="110" height="26" fill="none" xmlns="http://www.w3.org/2000/svg"><path fill-rule="evenodd" clip-rule="evenodd" d="M1.245 12.247c2.44.245 5.013.697 7.72 1.357.18.044.218.142.11.295l-5.41 7.773c-.066.097-.04.145.077.145l10.43-.011c.125 0 .204-.059.237-.176l1.667-5.854c.041-.15.136-.201.283-.153 7.127 2.284 13.594 5.615 19.401 9.995.296.222.339.18.13-.126L18.604.363c-.08-.117-.158-.117-.237 0a2905.512 2905.512 0 0 1-6.71 9.785c-.037.053-.072.107-.105.161-.164.26-.316.5-.683.504-3.561.023-6.778.324-9.65.902-1.173.235-1.164.412.026.532Zm19.262.434a.126.126 0 0 1-.076-.002l-3.146-.96a.126.126 0 0 1-.084-.157l.944-3.154a.126.126 0 0 1 .233-.023l2.203 4.11a.126.126 0 0 1-.074.186Zm24.307-3.676c-.232.244-.247.513-.046.806a.525.525 0 0 0 .386.222c.65.044 1.336.04 2.031.037 1.373-.007 2.782-.014 4.026.342 1.25.355 1.239 2.057 1.025 3.058-.158.745-.63 1.168-1.415 1.27-1.98.26-4.238.296-6.772.107-1.315-.1-1.955-.806-1.919-2.118.008-.263.143-.394.405-.394l1.675.004c.306.002.478.155.516.458.028.237.171.36.428.367 1.37.039 2.684.045 3.946.02.403-.008.627-.21.673-.608a.617.617 0 0 0-.076-.371.453.453 0 0 0-.383-.241 747.712 747.712 0 0 0-4.34-.122c-.902-.023-1.683-.206-2.343-.547a.446.446 0 0 1-.226-.26c-.227-.63-.294-1.363-.202-2.199.164-1.518 1.69-1.701 2.948-1.728 2.847-.056 4.56-.025 5.138.092 1.275.26 1.834 1.012 1.679 2.256-.015.135-.09.201-.226.199l-1.9-.023c-.17-.003-.282-.087-.333-.253a.801.801 0 0 0-.244-.378.498.498 0 0 0-.337-.126l-3.83.007a.39.39 0 0 0-.284.123Zm33.406 3.402a2.512 2.512 0 0 1-2.512 2.512h-6.033a2.513 2.513 0 0 1-2.512-2.512V9.64a2.512 2.512 0 0 1 2.512-2.512h6.033A2.512 2.512 0 0 1 78.22 9.64v2.768Zm-2.563-2.222a1.094 1.094 0 0 0-1.095-1.092l-3.763.007a1.094 1.094 0 0 0-1.091 1.095l.003 1.644a1.094 1.094 0 0 0 1.095 1.092l3.762-.007a1.095 1.095 0 0 0 1.092-1.095l-.003-1.644ZM27.007 7.31v3.877c0 .024.007.048.02.069l2.225 3.3a.123.123 0 0 0 .226-.07l-.02-7.184a.123.123 0 0 0-.121-.122l-2.207.008a.122.122 0 0 0-.122.122Zm5.809 2.283.015 5.089a.127.127 0 0 1-.126.126l-2.233-.02a.125.125 0 0 1-.117-.077.125.125 0 0 1-.01-.048l.009-7.353a.126.126 0 0 1 .126-.126h3.636a.126.126 0 0 1 .096.046l4.439 5.322a.127.127 0 0 0 .205-.008.127.127 0 0 0 .02-.076l-.027-5.154a.127.127 0 0 1 .078-.117.126.126 0 0 1 .049-.01l2.21-.007a.126.126 0 0 1 .126.126l.004 7.372a.127.127 0 0 1-.127.126h-3.685a.125.125 0 0 1-.096-.046L33.04 9.51a.126.126 0 0 0-.225.085Zm31.827-2.318-1.598 5.3a.122.122 0 0 1-.233.003l-1.863-5.307a.122.122 0 0 0-.118-.08l-2.145-.004a.122.122 0 0 0-.115.08l-1.892 5.224a.122.122 0 0 1-.234-.004L54.851 7.28a.122.122 0 0 0-.115-.084l-2.172-.02a.123.123 0 0 0-.114.165l2.538 7.383a.122.122 0 0 0 .115.085l2.7-.004a.122.122 0 0 0 .114-.08l1.721-4.673a.122.122 0 0 1 .23 0l1.712 4.672a.122.122 0 0 0 .115.08l2.715.005a.123.123 0 0 0 .114-.085l2.528-7.379a.124.124 0 0 0-.015-.112.121.121 0 0 0-.1-.052l-2.175.007a.122.122 0 0 0-.12.088Zm23.174 4.665c1.183.309 1.136 1.626 1.102 2.597v.007c-.008.173-.099.26-.272.26l-2.023.004c-.186.002-.277-.09-.275-.276 0-.106.006-.218.012-.33v-.001c.033-.657.069-1.358-.884-1.351-1.28.008-2.551.002-3.816-.015-.13-.003-.193.06-.19.19l.015 1.4c.002.255-.125.383-.383.383h-1.72c-.245 0-.367-.123-.367-.367l.003-7.074a.18.18 0 0 1 .18-.18c2.47-.005 4.948-.002 7.433.008 1.537.005 2.313.856 2.329 2.554.007 1.066-.375 1.728-1.147 1.988-.227.077-.226.144.003.203ZM86.43 9.479a.377.377 0 0 0-.378-.38l-4.22-.006a.378.378 0 0 0-.38.377l-.002 1.086a.377.377 0 0 0 .378.38l4.221.007a.378.378 0 0 0 .38-.378l.001-1.086Zm9.13 5.112-.02-5.235c0-.186.094-.278.28-.275 1.04.005 2.026.013 2.96.023.168.003.252-.082.252-.252l.004-1.4c0-.176-.088-.264-.264-.264H89.92c-.222 0-.331.111-.329.333l.012 1.28c.003.195.1.291.294.291l3.074-.003a.138.138 0 0 1 .138.137l-.038 5.307a.272.272 0 0 0 .076.192.263.263 0 0 0 .188.08l2.003.004c.148 0 .222-.073.222-.218Zm11.815-4.88-.016-2.335c0-.052.021-.102.058-.138a.193.193 0 0 1 .137-.057l2.046-.004a.196.196 0 0 1 .195.195l.015 7.242a.192.192 0 0 1-.057.137.19.19 0 0 1-.138.058l-2.068-.004a.194.194 0 0 1-.195-.195l.027-2.455a.202.202 0 0 0-.058-.142.192.192 0 0 0-.141-.057l-4.845.004a.193.193 0 0 0-.14.06.202.202 0 0 0-.055.143l.084 2.428a.197.197 0 0 1-.053.141.19.19 0 0 1-.138.061l-2.133.02a.195.195 0 0 1-.2-.196l.02-7.245a.195.195 0 0 1 .195-.195l2.095.023a.198.198 0 0 1 .182.123c.009.024.014.05.013.076l-.057 2.309a.18.18 0 0 0 .014.076.2.2 0 0 0 .105.108c.024.01.05.015.076.015h4.837c.051 0 .101-.02.138-.057a.197.197 0 0 0 .057-.138Z" fill="#fff"/></svg>
